svgs/sharp-regular/chess-board.svg

<svg xmlns="http://www.w3.org/2000/svg" viewBox="0 0 448 512"><!--! Font Awesome Pro 6.6.0 by @fontawesome - https://fontawesome.com License - https://fontawesome.com/license (Commercial License) Copyright 2024 Fonticons, Inc. --><path d="M48 80l0 352 352 0 0-352L48 80zM0 32l48 0 352 0 48 0 0 48 0 352 0 48-48 0L48 480 0 480l0-48L0 80 0 32zM128 96l0 64 64 0 0-64 64 0 0 64 64 0 0-64 64 0 0 64-64 0 0 64 64 0 0 64-64 0 0 64 64 0 0 64-64 0 0-64-64 0 0 64-64 0 0-64-64 0 0 64-64 0 0-64 64 0 0-64-64 0 0-64 64 0 0-64-64 0 0-64 64 0zm64 128l64 0 0-64-64 0 0 64zm0 64l0-64-64 0 0 64 64 0zm64 0l-64 0 0 64 64 0 0-64zm0 0l64 0 0-64-64 0 0 64z"/></svg>

<svg xmlns="http://www.w3.org/2000/svg" viewBox="0 0 448 512"><!--! Font Awesome Pro 6.4.2 by @fontawesome - https://fontawesome.com License - https://fontawesome.com/license (Commercial License) Copyright 2023 Fonticons, Inc. --><path d="M48 80V432H400V80H48zM0 32H48 400h48V80 432v48H400 48 0V432 80 32zM128 96v64h64V96h64v64h64V96h64v64H320v64h64v64H320v64h64v64H320V352H256v64H192V352H128v64H64V352h64V288H64V224h64V160H64V96h64zm64 128h64V160H192v64zm0 64V224H128v64h64zm64 0H192v64h64V288zm0 0h64V224H256v64z"/></svg>
